public/assets/images/step7.svg

<svg width="118" height="100" viewBox="0 0 118 100" fill="none" xmlns="http://www.w3.org/2000/svg">
<circle cx="67.5" cy="50" r="46.5" stroke="#FFD25C" stroke-width="7"/>
<path d="M18.8333 43V55.5L2 50L18.8333 43Z" fill="#FFD25C" stroke="#FFD25C"/>
<path d="M64.3 40.15C62.9667 40.15 61.8667 40.2167 61 40.35C60.1667 40.45 59.55 40.6833 59.15 41.05C58.75 41.3833 58.5 41.8833 58.4 42.55L57.85 46.8H55.25V35.55H79.15V39.75C77.7167 41.75 76.35 43.7333 75.05 45.7C73.75 47.6667 72.5833 49.7833 71.55 52.05C70.55 54.2833 69.7 56.85 69 59.75C68.3 62.6167 67.8 65.9833 67.5 69.85H61.4C61.7333 66.85 62.35 63.9833 63.25 61.25C64.1833 58.5167 65.2667 55.95 66.5 53.55C67.7333 51.15 69 49 70.3 47.1C71.6 45.1667 72.8 43.5167 73.9 42.15C75.0333 40.7833 75.9 39.7667 76.5 39.1L77.1 40.15H64.3Z" fill="#FFD25C"/>
</svg>

<svg xmlns="http://www.w3.org/2000/svg" width="118" height="100" fill="none"><circle cx="67.5" cy="50" r="46.5" stroke="#FFD25C" stroke-width="7"/><path fill="#FFD25C" stroke="#FFD25C" d="M18.833 43v12.5L2 50z"/><path fill="#FFD25C" d="M64.3 40.15q-2 0-3.3.2-1.25.15-1.85.7-.6.5-.75 1.5l-.55 4.25h-2.6V35.55h23.9v4.2q-2.15 3-4.1 5.95a46.4 46.4 0 0 0-3.5 6.35q-1.5 3.35-2.55 7.7-1.05 4.3-1.5 10.1h-6.1q.5-4.5 1.85-8.6a57.4 57.4 0 0 1 3.25-7.7q1.85-3.6 3.8-6.45 1.95-2.9 3.6-4.95 1.7-2.05 2.6-3.05l.6 1.05z"/></svg>
